src/lib/runemarks/svg/weapons-blast.svg

<svg xmlns="http://www.w3.org/2000/svg" xml:space="preserve" fill-rule="evenodd" stroke-linejoin="round" stroke-miterlimit="2" clip-rule="evenodd" viewBox="0 0 300 300"><path fill-rule="nonzero" d="M181.012 281.794c-1.191-.591-1.894-1.791-2.091-3.581v-.891c-.114-1.152-1.943-8.566-14.015 3.582l-.3.6c-1.987 2.184-3.778 3.478-5.372 3.872-1.988 0-3.281 1.387-3.872 4.172-.403 1.387-1.191 2.981-2.381 4.772l-.6.891c-4.347 7.493-10.657 1.802-11.334 1.191-5.569-5.569-13.322-11.728-23.259-18.488-3.075-1.538-9.56-.396-6.562 4.472 1.944 2.712 1.415 2.965-.6 5.662-3.581-3.581-9.544-8.25-17.897-14.016l-3.872-2.981c-2.578-1.791-4.772-3.675-6.562-5.662-3.384-3.384-8.456-6.356-15.206-8.944-1.067-.267-11.014-2.757-12.525-5.663-2.53-4.864 2.626-.07 7.753-1.782l5.662-2.091c1.191-.403 2.981-.703 5.372-.891 1.791 0 3.084-.103 3.872-.3l1.191-.3c5.1-1.38 5.186-1.179 8.653-5.072.591-.797 1.491-1.388 2.681-1.791.797 0 1.491.797 2.091 2.381.607 1.2 5.439 1.162 5.662.3 2.249-4.942 8.38-10.545 9.244-11.334l5.962-6.262c1.245-1.245 14.317-14.317 14.317-16.708q2.096-.888 4.472-3.872l1.791-2.681c.787-1.191 1.387-1.988 1.791-2.381l1.491-1.791c3.262-4.905 4.468-4.798 3.272-7.163l-.3-.6c-.197-.6-.797-1.294-1.791-2.091l-.891-.891c-2.25-3.299-8.174-8.552-8.943-9.234l-7.453-6.863q-.296-.605-1.491-1.491l-.6-.6c-.366-.537.256-3.489-4.023-7.153-3.677-3.149-9.772-9.842-10.584-10.734l-1.491-1.491c-.418-2.527 17.13-15.524 18.197-16.105.797-.591 1.884-1.584 3.281-2.981 1.791-2.184 3.375-3.478 4.772-3.881 2.713-2.97 26.398-19.349 22.068-24.75l-1.791-1.491-4.472-5.062c-6.025-1.489-10.764-12.131-11.335-13.415l-.6-2.091c-.787-1.987-1.584-3.478-2.381-4.472l-3.281-4.472q-3.868-5.074-5.962-7.153c-2.391-2.578-4.875-4.669-7.453-6.263-.891-.891.181-1.963.3-2.082 6.733-3.096 12.086-11.133 14.015-12.825l2.091-2.091 6.562-5.962 1.491-1.791c7.675-9.364 14.901-13.956 16.397-14.907 3.975-2.391 7.556-5.963 10.734-10.734l1.791-1.791c.994-.994 1.688-1.884 2.091-2.681.591 1.387.797 2.784.6 4.172l-2.982 6.862c-1.397.994-2.981 2.981-4.772 5.962l-2.091 3.281c-2.184 3.778-4.772 7.556-7.753 11.334-2.578 4.172-4.472 8.944-5.662 14.316-1.165 8.615.777 8.213 5.963 15.207 1.704 2.966 27.254 21.314 28.321 22.38l.6.6c.628.628 6.304 6.304 9.544 5.662h5.662c.881 0 1.331 3.941-1.49 5.963l-2.091 2.091c-5.962 6.366-10.134 11.334-12.525 14.906l-8.644 9.544c-1.17 1.442-12.981 15.998-15.496 17.286-1.044.744-3.195 7.957.3 10.444 1.264.647 7.707 7.923 8.344 8.643l10.734 10.734c1.791 1.791 2.981 3.281 3.581 4.472 2.206 3.429 5.994 5.588 8.459 8.836.82 1.08 1.65 6.996-1.896 10.542-.403.6-1.097 1.294-2.091 2.091l-.891.891c-2.054 2.868-2.848 3.843-5.062 1.19l-.6-.6c-.403-.403-.797-.403-1.191 0l-.3.891c-.591.403-.591.797 0 1.191l.3.3c2.375 1.784.67 2.169-.6 4.773-2.784 3.384-6.853 8.456-12.225 15.206l-5.072 6.563c-.591.797-1.191 2.184-1.791 4.172l-.891 2.091-.3.3c-.838.672.959 7.635 9.235 10.435l.6.3c1.988.787 3.375.994 4.172.6 2.981-.994 7.256-1.284 12.825-.891h6.262c1.339 0 1.306-.243 16.697-1.2h3.281c2.391.197 5.963.797 10.734 1.791l3.581.6c1.988.6 2.288 1.594.891 2.981l-7.453 5.062c-2.391 2.775-4.678 4.969-6.862 6.563l-8.344 6.262-6.862 6.863c-1.988 1.584-3.872 2.775-5.662 3.581-1.388.403-3.178 1.791-5.372 4.172zm-76.04-10.735c1.016-1.004 1.983-2.084.029-3.426-.868-.596-2.12.991-2.12 1.335.403.6 1.097 1.294 2.091 2.091M30.712 147.6h6.563v-3.281c0-.874.197-1.8.669-2.536 3.715-5.78 6.613-2.183 10.956-7.598 1.354.451 1.353.123 1.791-1.191l.3-.891c.994-.994 2.091-2.681 3.281-5.072.994-2.184 1.884-3.675 2.681-4.472 1.791-2.784 2.578-5.662 2.381-8.644-.403-2.194-1.387-4.969-2.981-8.353-1.584-2.578-4.069-6.263-7.453-11.034l-2.681-4.172c-1.987-1.584-4.369-4.472-7.153-8.644L28.922 68.887l-2.381-2.981c-.788-.591-1.191-1.387-1.191-2.381v-1.191c0-2.62 1.365-2.217 3.281-.3l1.491 1.491c1.253 1.46 1.826.584 17.596 16.396l3.281 3.281q5.667 5.667 11.925 8.944c.994.403 2.184 1.397 3.581 2.981l1.791 1.791c.873-.354 1.838.47 2.681.891.766.382 1.235 1.491 2.091 1.491 2.698 2.896 6.134 5.005 9.244 7.453 6.653 5.237 4.496 7.608 11.925 11.325l.891.6c3.527 2.012 2.246 7.589-1.5 9.834-1.191.6-1.987 1.191-2.381 1.791-1.584.197-3.572 1.397-5.962 3.581-4.631 4.631-9.064 4.229-5.063 9.543l2.681 3.581 2.091 2.981c.994 1.397 2.681 3.084 5.072 5.072l2.091 1.791c4.172 3.581 6.862 6.666 8.053 9.244 0 .559.837-.256 5.372 4.472.918.957 7.936 8.273 10.134 13.125.403 1.388.797 2.391 1.191 2.981.51.504 7.964 7.864.292 8.954-.797.403-1.791 1.191-2.981 2.381l-2.981 2.681c-.97.81-1.758 1.818-2.681 2.681-2.159 2.018-4.148 4.257-6.562 5.962-2.184 1.791-3.778 3.178-4.772 4.172-.541 0 .249.898-5.072 4.472-1.191.591-2.578 2.381-4.172 5.372l-.3.6c-.396.81-1.67 1.003-1.782.891-.557-.816-1.985 1.634-10.894-5.823-.638-.534-7.777-6.51-8.204-6.404-3.778-3.178-9.647-7.359-17.597-12.525l-.891-.891c-.591-.591-1.087-.994-1.491-1.191-1.594-.994-2.091-2.381-1.491-4.172.925-1.377 9.882.637 10.445.6 3.095-.34 10.186.946 10.434 1.191 2.421.807 7.288-3.024 7.603-4.922.458-2.754-11.18-10.174-13.566-10.884-.197 0-.3-.103-.3-.3l-.3-.3c-.403-1.594-1.791-3.281-4.172-5.072-1.397-1.191-2.391-2.091-2.981-2.681l-.891-1.191c-.193-.325-1.841-3.096-3.882-2.691 0-.49-.466-.147-4.482-4.173l-.891-1.191c-.994-1.987-2.091-3.178-3.281-3.581l-.3-.6-.891-.891c-1.388-.787-3.084-2.784-5.072-5.962zm39.366 29.522c0-1.798-.638-1.516-2.32-2.139-2.148-.796-3.055-2.294-3.799-2.189-.675.096-2.281 2.742-.49 3.979.21.145 2.319.99 2.64 1.705.11.244-.163 2.037 1.279 1.316l.891-.6c.151-.076 1.688-.853 1.819-1.076.041-.069.194-.33-.028-1.006zm-2.381-66.197c-.15.102-1.283.875-1.757 1.441-.722.863-.298.999-.034 3.331.439-.173.955-.07 1.394-.242.398-.157.439-.957.444-1.048zm140.747 118.678c-.591 0-1.491-.197-2.681-.6-9.186-1.516-9.155-.972-18.187 1.491-2.184.403-5.269.6-9.244.6h-5.662c-6.031 0 8.942-16.735 9.234-17.596 0-.591.497-1.294 1.491-2.091l1.191-.891 23.859-23.859c1.163-1.163 2.557-2.687 2.381-4.322-.244-2.262-1.055-1.851-13.125-11.175-5.166-3.581-9.141-6.262-11.925-8.053-1.467-.742-5.984-3.342 8.945-18.498 2.194-1.791 5.072-4.866 8.644-9.244 1.097-1.305 13.519-13.706 13.116-14.916l1.791-1.191c4.917-3.145 4.061-3.745 7.753-8.353l1.191-1.191c1.191-.994 2.184-1.688 2.981-2.091 2.295 0 1.337-2.641 3.572-2.082.197 0 .403-.3.6-.891l.3-.6c.488-.247 11.112-10.841 11.634-11.624l.6-.891q.602-.888 3.581-2.381c1.191-.797 2.784-2.381 4.772-4.772l2.681-2.681c.365-.271 5.425-.012-.3 5.672l-.6.6c-.862 1.104-11.503 18.219-12.234 19.687-.523.979-6.516 12.186-6.554 12.224l-.6.6c-1.988 1.397-3.075 2.888-3.281 4.472-1.387.797-2.588 2.484-3.581 5.072-.2.598-.638.341-3.882 6.862l-1.191 1.791-.6 1.791c-.797 1.791-1.594 3.084-2.381 3.881-.995 1.496-1.618 3.446-1.341 5.222.765 4.902 2.406 3.689 12.375 11.775l7.453 5.662q2.982 2.095 7.453 6.862c4.286 4.281 6.895 3.993 4.772 7.154-.197 0-.497.197-.891.6-1.988 1.594-4.669 4.275-8.053 8.053-2.981 3.178-5.269 5.475-6.862 6.862-1.397.994-2.091 2.194-2.091 3.581.197.797-.197 1.491-1.191 2.091-4.384 6.429-5.416 5.406-10.135 11.625-2.188 2.766-4.752 5.227-6.863 8.053-2.122 2.841-.754 3.375-2.682 6.262-.591 1.791-1.791 2.484-3.581 2.091-.197-.197-.497-.403-.891-.6h-1.791zM1.191 205.453c4.29 4.29 6.35-1.328 11.025 2.382.64-.214.574.239 8.343 1.2h1.491c1.594-.197 3.872.103 6.863.891l1.491.3 2.682 1.5c1.397-.197 3.487 0 6.262.6l2.381.6h1.191c.725 0 1.373-.501 2.091-.6 1.48-.203 3.188-1.064 4.472-.3l1.491 1.491 3.581 2.681 3.281 2.681c5.072 4.572 4.912 4.584 11.034 7.453l2.981 1.191 2.681 2.091c1.424.696.686 2.205.6 2.382l-3.882 5.962c0 .403-.6.497-1.791.3h-.6l-1.491.3c-2.65 0-4.731 3.071-10.734-1.2l-.3-.3c-2.184-1.791-4.275-3.075-6.263-3.872-1.151-.285-1.952-1.352-2.981-1.941-1.061-.607-2.058-1.641-3.281-1.641-.693-.694-1.297.545-11.025-5.362-.538-.327-1.161-.6-1.791-.6h-.6c-1.397.197-2.587-.3-3.581-1.491-1.397-2.194-3.581-3.478-6.562-3.872-1.228-.498-10.984-4.453-15.207-6.563-.471-.296-5.072-3.183-5.072-4.762v-.3c0-.797.403-1.191 1.191-1.191zm227.831 26.841c-1.865-4.652 2.431-10.575 2.981-11.334l1.191-2.091c.934-1.846 10.978-14.801 11.024-14.915 1.191-1.594 2.588-1.594 4.172 0l.3.3c2.524 2.492 3.668-.253 4.773.3h.3c4.172.403 7.753-.394 10.734-2.381h2.091l11.625-1.5c1.424 0 2.558-1.255 3.873-1.8.378-.157.823-.48 1.191-.3 1.987.403 4.772-.197 8.353-1.791l1.491-.6c4.382-1.882 6.473.21 6.862.6-.901.615-1.909 1.058-2.831 1.641-.967.612-2.029 1.125-2.831 1.941l-1.191.6c-.668-.338-1.526-.373-2.241-.15-.88.275-5.401 1.687-10.284 5.213l-1.191.891c-2.775 2.184-7.059 4.575-12.825 7.153l-4.172 1.791c-9.775 4.942-9.489 5.198-19.386 10.145l-2.681 1.491-.891.6-.6.6c-2.568 3.249-3.279 1.948-9.843 3.591z"/></svg>

<?xml version="1.0" encoding="UTF-8" standalone="no"?>
<!DOCTYPE svg PUBLIC "-//W3C//DTD SVG 1.1//EN" "http://www.w3.org/Graphics/SVG/1.1/DTD/svg11.dtd">
<svg width="100%" height="100%" viewBox="0 0 300 300" version="1.1" xmlns="http://www.w3.org/2000/svg" xmlns:xlink="http://www.w3.org/1999/xlink" xml:space="preserve" xmlns:serif="http://www.serif.com/" style="fill-rule:evenodd;clip-rule:evenodd;stroke-linejoin:round;stroke-miterlimit:2;">
    <path d="M181.012,281.794C179.821,281.203 179.118,280.003 178.921,278.213L178.921,277.322C178.807,276.17 176.978,268.756 164.906,280.904L164.606,281.504C162.619,283.688 160.828,284.982 159.234,285.376C157.246,285.376 155.953,286.763 155.362,289.548C154.959,290.935 154.171,292.529 152.981,294.32L152.381,295.211C148.034,302.704 141.724,297.013 141.047,296.402C135.478,290.833 127.725,284.674 117.788,277.914C114.713,276.376 108.228,277.518 111.226,282.386C113.17,285.098 112.641,285.351 110.626,288.048C107.045,284.467 101.082,279.798 92.729,274.032L88.857,271.051C86.279,269.26 84.085,267.376 82.295,265.389C78.911,262.005 73.839,259.033 67.089,256.445C66.022,256.178 56.075,253.688 54.564,250.782C52.034,245.918 57.19,250.712 62.317,249L67.979,246.909C69.17,246.506 70.96,246.206 73.351,246.018C75.142,246.018 76.435,245.915 77.223,245.718L78.414,245.418C83.514,244.038 83.6,244.239 87.067,240.346C87.658,239.549 88.558,238.958 89.748,238.555C90.545,238.555 91.239,239.352 91.839,240.936C92.446,242.136 97.278,242.098 97.501,241.236C99.75,236.294 105.881,230.691 106.745,229.902L112.707,223.64C113.952,222.395 127.024,209.323 127.024,206.932C128.421,206.34 129.912,205.049 131.496,203.06L133.287,200.379C134.074,199.188 134.674,198.391 135.078,197.998L136.569,196.207C139.831,191.302 141.037,191.409 139.841,189.044L139.541,188.444C139.344,187.844 138.744,187.15 137.75,186.353L136.859,185.462C134.609,182.163 128.685,176.91 127.916,176.228L120.463,169.365C120.266,168.962 119.769,168.465 118.972,167.874L118.372,167.274C118.006,166.737 118.628,163.785 114.349,160.121C110.672,156.972 104.577,150.279 103.765,149.387L102.274,147.896C101.856,145.369 119.404,132.372 120.471,131.791C121.268,131.2 122.355,130.207 123.752,128.81C125.543,126.626 127.127,125.332 128.524,124.929C131.237,121.959 154.922,105.58 150.592,100.179L148.801,98.688L144.329,93.626C138.304,92.137 133.565,81.495 132.994,80.211L132.394,78.12C131.607,76.133 130.81,74.642 130.013,73.648L126.732,69.176C124.153,65.793 122.166,63.409 120.77,62.023C118.379,59.445 115.895,57.354 113.317,55.76C112.426,54.869 113.498,53.797 113.617,53.678C120.35,50.582 125.703,42.545 127.632,40.853L129.723,38.762L136.285,32.8L137.776,31.009C145.451,21.645 152.677,17.053 154.173,16.102C158.148,13.711 161.729,10.139 164.907,5.368L166.698,3.577C167.692,2.583 168.386,1.693 168.789,0.896C169.38,2.283 169.586,3.68 169.389,5.068L166.407,11.93C165.01,12.924 163.426,14.911 161.635,17.892L159.544,21.173C157.36,24.951 154.772,28.729 151.791,32.507C149.213,36.679 147.319,41.451 146.129,46.823C144.964,55.438 146.906,55.036 152.092,62.03C153.796,64.996 179.346,83.344 180.413,84.41L181.013,85.01C181.641,85.638 187.317,91.314 190.557,90.672L196.219,90.672C197.1,90.672 197.55,94.613 194.729,96.635L192.638,98.726C186.676,105.092 182.504,110.06 180.113,113.632L171.469,123.176C170.299,124.618 158.488,139.174 155.973,140.462C154.929,141.206 152.778,148.419 156.273,150.906C157.537,151.553 163.98,158.829 164.617,159.549L175.351,170.283C177.142,172.074 178.332,173.564 178.932,174.755C181.138,178.184 184.926,180.343 187.391,183.591C188.211,184.671 189.041,190.587 185.495,194.133C185.092,194.733 184.398,195.427 183.404,196.224L182.513,197.115C180.459,199.983 179.665,200.958 177.451,198.305L176.851,197.705C176.448,197.302 176.054,197.302 175.66,197.705L175.36,198.596C174.769,198.999 174.769,199.393 175.36,199.787L175.66,200.087C178.035,201.871 176.33,202.256 175.06,204.86C172.276,208.244 168.207,213.316 162.835,220.066L157.763,226.629C157.172,227.426 156.572,228.813 155.972,230.801L155.081,232.892L154.781,233.192C153.943,233.864 155.74,240.827 164.016,243.627L164.616,243.927C166.604,244.714 167.991,244.921 168.788,244.527C171.769,243.533 176.044,243.243 181.613,243.636L187.875,243.636C189.214,243.636 189.181,243.393 204.572,242.436L207.853,242.436C210.244,242.633 213.816,243.233 218.587,244.227L222.168,244.827C224.156,245.427 224.456,246.421 223.059,247.808L215.606,252.87C213.215,255.645 210.928,257.839 208.744,259.433L200.4,265.695L193.538,272.558C191.55,274.142 189.666,275.333 187.876,276.139C186.488,276.542 184.698,277.93 182.504,280.311L181.012,281.794ZM104.972,271.059C105.988,270.055 106.955,268.975 105.001,267.633C104.133,267.037 102.881,268.624 102.881,268.968C103.284,269.568 103.978,270.262 104.972,271.059M30.712,147.6L37.275,147.6L37.275,144.319C37.275,143.445 37.472,142.519 37.944,141.783C41.659,136.003 44.557,139.6 48.9,134.185C50.254,134.636 50.253,134.308 50.691,132.994L50.991,132.103C51.985,131.109 53.082,129.422 54.272,127.031C55.266,124.847 56.156,123.356 56.953,122.559C58.744,119.775 59.531,116.897 59.334,113.915C58.931,111.721 57.947,108.946 56.353,105.562C54.769,102.984 52.284,99.299 48.9,94.528L46.219,90.356C44.232,88.772 41.85,85.884 39.066,81.712L28.922,68.887L26.541,65.906C25.753,65.315 25.35,64.519 25.35,63.525L25.35,62.334C25.35,59.714 26.715,60.117 28.631,62.034L30.122,63.525C31.375,64.985 31.948,64.109 47.718,79.921L50.999,83.202C54.777,86.98 58.752,89.961 62.924,92.146C63.918,92.549 65.108,93.543 66.505,95.127L68.296,96.918C69.169,96.564 70.134,97.388 70.977,97.809C71.743,98.191 72.212,99.3 73.068,99.3C75.766,102.196 79.202,104.305 82.312,106.753C88.965,111.99 86.808,114.361 94.237,118.078L95.128,118.678C98.655,120.69 97.374,126.267 93.628,128.512C92.437,129.112 91.641,129.703 91.247,130.303C89.663,130.5 87.675,131.7 85.285,133.884C80.654,138.515 76.221,138.113 80.222,143.427L82.903,147.008L84.994,149.989C85.988,151.386 87.675,153.073 90.066,155.061L92.157,156.852C96.329,160.433 99.019,163.518 100.21,166.096C100.21,166.655 101.047,165.84 105.582,170.568C106.5,171.525 113.518,178.841 115.716,183.693C116.119,185.081 116.513,186.084 116.907,186.674C117.417,187.178 124.871,194.538 117.199,195.628C116.402,196.031 115.408,196.819 114.218,198.009L111.237,200.69C110.267,201.5 109.479,202.508 108.556,203.371C106.397,205.389 104.408,207.628 101.994,209.333C99.81,211.124 98.216,212.511 97.222,213.505C96.681,213.505 97.471,214.403 92.15,217.977C90.959,218.568 89.572,220.358 87.978,223.349L87.678,223.949C87.282,224.759 86.008,224.952 85.896,224.84C85.339,224.024 83.911,226.474 75.002,219.017C74.364,218.483 67.225,212.507 66.798,212.613C63.02,209.435 57.151,205.254 49.201,200.088L48.31,199.197C47.719,198.606 47.223,198.203 46.819,198.006C45.225,197.012 44.728,195.625 45.328,193.834C46.253,192.457 55.21,194.471 55.773,194.434C58.868,194.094 65.959,195.38 66.207,195.625C68.628,196.432 73.495,192.601 73.81,190.703C74.268,187.949 62.63,180.529 60.244,179.819C60.047,179.819 59.944,179.716 59.944,179.519L59.644,179.219C59.241,177.625 57.853,175.938 55.472,174.147C54.075,172.956 53.081,172.056 52.491,171.466L51.6,170.275C51.407,169.95 49.759,167.179 47.718,167.584C47.718,167.094 47.252,167.437 43.236,163.411L42.345,162.22C41.351,160.233 40.254,159.042 39.064,158.639L38.764,158.039L37.873,157.148C36.485,156.361 34.789,154.364 32.801,151.186L30.712,147.6ZM70.078,177.122C70.078,175.324 69.44,175.606 67.758,174.983C65.61,174.187 64.703,172.689 63.959,172.794C63.284,172.89 61.678,175.536 63.469,176.773C63.679,176.918 65.788,177.763 66.109,178.478C66.219,178.722 65.946,180.515 67.388,179.794L68.279,179.194C68.43,179.118 69.967,178.341 70.098,178.118C70.139,178.049 70.292,177.788 70.07,177.112L70.078,177.122ZM67.697,110.925C67.547,111.027 66.414,111.8 65.94,112.366C65.218,113.229 65.642,113.365 65.906,115.697C66.345,115.524 66.861,115.627 67.3,115.455C67.698,115.298 67.739,114.498 67.744,114.407C67.744,114.407 67.693,110.646 67.697,110.925ZM208.444,229.603C207.853,229.603 206.953,229.406 205.763,229.003C196.577,227.487 196.608,228.031 187.576,230.494C185.392,230.897 182.307,231.094 178.332,231.094L172.67,231.094C166.639,231.094 181.612,214.359 181.904,213.498C181.904,212.907 182.401,212.204 183.395,211.407L184.586,210.516L208.445,186.657C209.608,185.494 211.002,183.97 210.826,182.335C210.582,180.073 209.771,180.484 197.701,171.16C192.535,167.579 188.56,164.898 185.776,163.107C184.309,162.365 179.792,159.765 194.721,144.609C196.915,142.818 199.793,139.743 203.365,135.365C204.462,134.06 216.884,121.659 216.481,120.449L218.272,119.258C223.189,116.113 222.333,115.513 226.025,110.905L227.216,109.714C228.407,108.72 229.4,108.026 230.197,107.623C232.492,107.623 231.534,104.982 233.769,105.541C233.966,105.541 234.172,105.241 234.369,104.65L234.669,104.05C235.157,103.803 245.781,93.209 246.303,92.426L246.903,91.535C247.304,90.943 248.498,90.149 250.484,89.154C251.675,88.357 253.268,86.773 255.256,84.382L257.937,81.701C258.302,81.43 263.362,81.689 257.637,87.373L257.037,87.973C256.175,89.077 245.534,106.192 244.803,107.66C244.28,108.639 238.287,119.846 238.249,119.884L237.649,120.484C235.661,121.881 234.574,123.372 234.368,124.956C232.981,125.753 231.78,127.44 230.787,130.028C230.587,130.626 230.149,130.369 226.905,136.89L225.714,138.681L225.114,140.472C224.317,142.263 223.52,143.556 222.733,144.353C221.738,145.849 221.115,147.799 221.392,149.575C222.157,154.477 223.798,153.264 233.767,161.35L241.22,167.012C243.208,168.409 245.692,170.696 248.673,173.874C252.959,178.155 255.568,177.867 253.445,181.028C253.248,181.028 252.948,181.225 252.554,181.628C250.566,183.222 247.885,185.903 244.501,189.681C241.52,192.859 239.232,195.156 237.639,196.543C236.242,197.537 235.548,198.737 235.548,200.124C235.745,200.921 235.351,201.615 234.357,202.215C229.973,208.644 228.941,207.621 224.222,213.84C222.034,216.606 219.47,219.067 217.359,221.893C215.237,224.734 216.605,225.268 214.677,228.155C214.086,229.946 212.886,230.639 211.096,230.246C210.899,230.049 210.599,229.843 210.205,229.646L208.414,229.646L208.444,229.603ZM1.191,205.453C5.481,209.743 7.541,204.125 12.216,207.835C12.856,207.621 12.79,208.074 20.559,209.035L22.05,209.035C23.644,208.838 25.922,209.138 28.913,209.926L30.404,210.226L33.086,211.726C34.483,211.529 36.573,211.726 39.348,212.326L41.729,212.926L42.92,212.926C43.645,212.926 44.293,212.425 45.011,212.326C46.491,212.123 48.199,211.262 49.483,212.026L50.974,213.517L54.555,216.198L57.836,218.879C62.908,223.451 62.748,223.463 68.87,226.332L71.851,227.523L74.532,229.614C75.956,230.31 75.218,231.819 75.132,231.996L71.25,237.958C71.25,238.361 70.65,238.455 69.459,238.258L68.859,238.258L67.368,238.558C64.718,238.558 62.637,241.629 56.634,237.358L56.334,237.058C54.15,235.267 52.059,233.983 50.071,233.186C48.92,232.901 48.119,231.834 47.09,231.245C46.029,230.638 45.032,229.604 43.809,229.604C43.116,228.91 42.512,230.149 32.784,224.242C32.246,223.915 31.623,223.642 30.993,223.642L30.393,223.642C28.996,223.839 27.806,223.342 26.812,222.151C25.415,219.957 23.231,218.673 20.25,218.279C19.022,217.781 9.266,213.826 5.043,211.716C4.572,211.42 -0.029,208.533 -0.029,206.954L-0.029,206.654C-0.029,205.857 0.374,205.463 1.162,205.463L1.191,205.453ZM229.022,232.294C227.157,227.642 231.453,221.719 232.003,220.96L233.194,218.869C234.128,217.023 244.172,204.068 244.218,203.954C245.409,202.36 246.806,202.36 248.39,203.954L248.69,204.254C251.214,206.746 252.358,204.001 253.463,204.554L253.763,204.554C257.935,204.957 261.516,204.16 264.497,202.173L266.588,202.173L278.213,200.673C279.637,200.673 280.771,199.418 282.086,198.873C282.464,198.716 282.909,198.393 283.277,198.573C285.264,198.976 288.049,198.376 291.63,196.782L293.121,196.182C297.503,194.3 299.594,196.392 299.983,196.782C299.082,197.397 298.074,197.84 297.152,198.423C296.185,199.035 295.123,199.548 294.321,200.364L293.13,200.964C292.462,200.626 291.604,200.591 290.889,200.814C290.009,201.089 285.488,202.501 280.605,206.027L279.414,206.918C276.639,209.102 272.355,211.493 266.589,214.071L262.417,215.862C252.642,220.804 252.928,221.06 243.031,226.007L240.35,227.498L239.459,228.098L238.859,228.698C236.291,231.947 235.58,230.646 229.016,232.289L229.022,232.294Z" style="fill-rule:nonzero;"/>
</svg>
